X:2011
T:Blind Mary
R:Air
C:Turlough O'Carolan (1670-1738)
O:Ireland
M:2/4
L:1/8
Q:1/8=120
K:D
A|"D"d>d dc|"G"cB "D"A (F/G/)|A>B "Bm"AF|"A"E3 (F/G/)|
("D"A>f) (f>e)|("G"dB) "D"A(D/E/)|(F>G) ("A"E>D)|"D"D3||
(d/e/)|"D"f>g fB|"A"ec A(B/c/)|"Bm"d>D D(E/F/)|"A"E3 (A/G/)|
("D"F>G) "F#m"Ad|"Bm"f>e "G"d (D/E/)|("D"F>G) ("A"E>D)|"D"D3|]

